SVG_Azure_Grouped/Management/Automation Change Tracking.svg

<?xml version="1.0" encoding="UTF-8" standalone="no"?>
<!-- Generated by Microsoft Visio, SVG Export Automation Change Tracking.svg Page-1 -->

<svg
   xmlns:dc="http://purl.org/dc/elements/1.1/"
   xmlns:cc="http://creativecommons.org/ns#"
   xmlns:rdf="http://www.w3.org/1999/02/22-rdf-syntax-ns#"
   xmlns:svg="http://www.w3.org/2000/svg"
   xmlns="http://www.w3.org/2000/svg"
   xmlns:sodipodi="http://sodipodi.sourceforge.net/DTD/sodipodi-0.dtd"
   xmlns:inkscape="http://www.inkscape.org/namespaces/inkscape"
   width="0.7480281in"
   height="0.78739738in"
   viewBox="0 0 53.85812 56.692899"
   xml:space="preserve"
   class="st4"
   version="1.1"
   id="svg44"
   sodipodi:docname="Automation Change Tracking.svg"
   style="font-size:12px;overflow:visible;color-interpolation-filters:sRGB;fill:none;fill-rule:evenodd;stroke-linecap:square;stroke-miterlimit:3"
   inkscape:version="0.92.5 (2060ec1f9f, 2020-04-08)"><metadata
   id="metadata50"><rdf:RDF><cc:Work
       rdf:about=""><dc:format>image/svg+xml</dc:format><dc:type
         rdf:resource="http://purl.org/dc/dcmitype/StillImage" /></cc:Work></rdf:RDF></metadata><defs
   id="defs48" /><sodipodi:namedview
   pagecolor="#ffffff"
   bordercolor="#666666"
   borderopacity="1"
   objecttolerance="10"
   gridtolerance="10"
   guidetolerance="10"
   inkscape:pageopacity="0"
   inkscape:pageshadow="2"
   inkscape:window-width="640"
   inkscape:window-height="480"
   id="namedview46"
   showgrid="false"
   inkscape:zoom="1.7193066"
   inkscape:cx="35.905348"
   inkscape:cy="23.277752"
   inkscape:window-x="0"
   inkscape:window-y="0"
   inkscape:window-maximized="0"
   inkscape:current-layer="svg44" />
	<style
   type="text/css"
   id="style2">
	<![CDATA[
		.st1 {fill:#a0a1a2;stroke:none;stroke-linecap:butt;stroke-width:12.24}
		.st2 {fill:#ffffff;fill-opacity:0.8;stroke:none;stroke-linecap:butt;stroke-width:12.24}
		.st3 {fill:#0072c6;stroke:none;stroke-linecap:butt;stroke-width:12.24}
		.st4 {fill:none;fill-rule:evenodd;font-size:12px;overflow:visible;stroke-linecap:square;stroke-miterlimit:3}
	]]>
	</style>

	<g
   id="g42"
   transform="translate(-12.240131,-12.240003)">
		<title
   id="title4">Page-1</title>
		<g
   id="group13156-1"
   transform="translate(12.24,-34.0157)">
			<title
   id="title6">Automation Change Tracking.13156</title>
			<g
   id="group13157-2">
				<title
   id="title8">Sheet.13157</title>
				<g
   id="shape13158-3"
   transform="translate(0,-19.2756)">
					<title
   id="title10">Sheet.13158</title>
					<rect
   x="0"
   y="65.531303"
   width="32.539398"
   height="37.417301"
   class="st1"
   id="rect12"
   style="fill:#a0a1a2;stroke:none;stroke-width:12.23999977;stroke-linecap:butt" />
				</g>
				<g
   id="shape13159-5"
   transform="translate(2.24409,-21.5433)">
					<title
   id="title15">Sheet.13159</title>
					<rect
   x="0"
   y="70.066803"
   width="28.051201"
   height="32.881901"
   class="st2"
   id="rect17"
   style="fill:#ffffff;fill-opacity:0.8;stroke:none;stroke-width:12.23999977;stroke-linecap:butt" />
				</g>
				<g
   id="shape13160-7"
   transform="translate(21.3189)">
					<title
   id="title20">Sheet.13160</title>
					<rect
   x="0"
   y="65.531303"
   width="32.539398"
   height="37.417301"
   class="st1"
   id="rect22"
   style="fill:#a0a1a2;stroke:none;stroke-width:12.23999977;stroke-linecap:butt" />
				</g>
				<g
   id="shape13161-9"
   transform="translate(23.563,-2.26772)">
					<title
   id="title25">Sheet.13161</title>
					<rect
   x="0"
   y="70.066803"
   width="28.051201"
   height="32.881901"
   class="st2"
   id="rect27"
   style="fill:#ffffff;fill-opacity:0.8;stroke:none;stroke-width:12.23999977;stroke-linecap:butt" />
				</g>
				<g
   id="shape13162-11"
   transform="translate(7.85433,-7.93701)">
					<title
   id="title30">Sheet.13162</title>
					<path
   d="m 23.56,90.48 h 14.59 v 2.26 H 21.32 Z m 1.13,4.53 h 13.46 v 2.27 H 24.69 Z m 13.46,-6.8 H 26.93 l 2.24,-2.27 h 8.98 z m -17.95,6.8 h 3.36 v 3.4 H 20.2 Z m 4.49,4.54 h 13.46 v 2.26 H 24.69 Z M 0,67.8 h 16.83 v 2.27 H 0 Z m 0,9.07 h 11.22 v 2.27 H 0 Z M 0,72.33 H 11.22 V 74.6 H 0 Z m 0,-9.07 h 16.83 v 2.27 H 0 Z m 20.2,36.29 h 3.36 v 3.4 H 20.2 Z"
   class="st1"
   id="path32"
   inkscape:connector-curvature="0"
   style="fill:#a0a1a2;stroke:none;stroke-width:12.23999977;stroke-linecap:butt" />
				</g>
				<g
   id="shape13163-13"
   transform="translate(12.3448,-21.5433)">
					<title
   id="title35">Sheet.13163</title>
					<path
   d="m 23,97.85 -6.17,-5.11 v 3.41 H 0 v 3.4 h 16.83 v 3.4 z"
   class="st3"
   id="path37"
   inkscape:connector-curvature="0"
   style="fill:#0072c6;stroke:none;stroke-width:12.23999977;stroke-linecap:butt" />
				</g>
			</g>
		</g>
	</g>
</svg>

<?xml version="1.0" encoding="UTF-8" standalone="no"?>
<!DOCTYPE svg PUBLIC "-//W3C//DTD SVG 1.1//EN" "http://www.w3.org/Graphics/SVG/1.1/DTD/svg11.dtd">
<!-- Generated by Microsoft Visio, SVG Export Automation Change Tracking.svg Page-1 -->
<svg xmlns="http://www.w3.org/2000/svg" xmlns:xlink="http://www.w3.org/1999/xlink" xmlns:ev="http://www.w3.org/2001/xml-events"
		width="1.08803in" height="1.42984in" viewBox="0 0 78.3383 102.949" xml:space="preserve" color-interpolation-filters="sRGB"
		class="st4">
	<style type="text/css">
	<![CDATA[
		.st1 {fill:#a0a1a2;stroke:none;stroke-linecap:butt;stroke-width:12.24}
		.st2 {fill:#ffffff;fill-opacity:0.8;stroke:none;stroke-linecap:butt;stroke-width:12.24}
		.st3 {fill:#0072c6;stroke:none;stroke-linecap:butt;stroke-width:12.24}
		.st4 {fill:none;fill-rule:evenodd;font-size:12px;overflow:visible;stroke-linecap:square;stroke-miterlimit:3}
	]]>
	</style>

	<g>
		<title>Page-1</title>
		<g id="group12863-1" transform="translate(12.24,-34.0157)">
			<title>Automation Change Tracking.12863</title>
			<g id="group12864-2">
				<title>Sheet.12864</title>
				<g id="shape12865-3" transform="translate(-2.65787E-13,-19.2756)">
					<title>Sheet.12865</title>
					<rect x="0" y="65.5313" width="32.5394" height="37.4173" class="st1"/>
				</g>
				<g id="shape12866-5" transform="translate(2.24409,-21.5433)">
					<title>Sheet.12866</title>
					<rect x="0" y="70.0668" width="28.0512" height="32.8819" class="st2"/>
				</g>
				<g id="shape12867-7" transform="translate(21.3189,1.42109E-14)">
					<title>Sheet.12867</title>
					<rect x="0" y="65.5313" width="32.5394" height="37.4173" class="st1"/>
				</g>
				<g id="shape12868-9" transform="translate(23.563,-2.26772)">
					<title>Sheet.12868</title>
					<rect x="0" y="70.0668" width="28.0512" height="32.8819" class="st2"/>
				</g>
				<g id="shape12869-11" transform="translate(7.85433,-7.93701)">
					<title>Sheet.12869</title>
					<path d="M23.56 90.48 L38.15 90.48 L38.15 92.74 L21.32 92.74 L23.56 90.48 ZM24.69 95.01 L38.15 95.01 L38.15 97.28
								 L24.69 97.28 L24.69 95.01 ZM38.15 88.21 L26.93 88.21 L29.17 85.94 L38.15 85.94 L38.15 88.21 ZM20.2
								 95.01 L23.56 95.01 L23.56 98.41 L20.2 98.41 L20.2 95.01 ZM24.69 99.55 L38.15 99.55 L38.15 101.81
								 L24.69 101.81 L24.69 99.55 ZM0 67.8 L16.83 67.8 L16.83 70.07 L0 70.07 L0 67.8 ZM0 76.87 L11.22 76.87
								 L11.22 79.14 L0 79.14 L0 76.87 ZM0 72.33 L11.22 72.33 L11.22 74.6 L0 74.6 L0 72.33 ZM0 63.26 L16.83
								 63.26 L16.83 65.53 L0 65.53 L0 63.26 ZM20.2 99.55 L23.56 99.55 L23.56 102.95 L20.2 102.95 L20.2
								 99.55 Z" class="st1"/>
				</g>
				<g id="shape12870-13" transform="translate(12.3448,-21.5433)">
					<title>Sheet.12870</title>
					<path d="M23 97.85 L16.83 92.74 L16.83 96.15 L0 96.15 L0 99.55 L16.83 99.55 L16.83 102.95 L23 97.85 Z"
							class="st3"/>
				</g>
			</g>
		</g>
	</g>
</svg>
